.local/share/icons/Gruvbox-Plus-Dark/mimetypes/scalable/application-software.svg

<svg width="256" height="256" viewBox="0 0 256 256" fill="none" xmlns="http://www.w3.org/2000/svg">
<g opacity="0.4" filter="url(#filter0_f)">
<path fill-rule="evenodd" clip-rule="evenodd" d="M99.4032 15.5636H55.0839H55.0838C46.1734 15.5636 39 22.737 39 31.6474V224.654C39 233.564 46.1734 240.737 55.0838 240.737H55.1727H199.838H199.927C208.838 240.737 216.011 233.564 216.011 224.654L216.011 224.609L216.011 31.6474C216.011 22.737 208.838 15.5636 199.927 15.5636H155.608H99.4032Z" fill="#282828"/>
</g>
<path fill-rule="evenodd" clip-rule="evenodd" d="M99.4032 15H55.0839H55.0838C46.1734 15 39 22.1734 39 31.0838V224.09C39 233 46.1734 240.174 55.0838 240.174H55.1727H199.838H199.927C208.838 240.174 216.011 233 216.011 224.09L216.011 224.046L216.011 31.0838C216.011 22.1734 208.838 15 199.927 15H155.608H99.4032Z" fill="url(#paint0_radial)"/>
<path fill-rule="evenodd" clip-rule="evenodd" d="M99.4032 15H55.0839H55.0838C46.1734 15 39 22.1734 39 31.0838V224.09C39 233 46.1734 240.174 55.0838 240.174H55.1727H199.838H199.927C208.838 240.174 216.011 233 216.011 224.09L216.011 224.046L216.011 31.0838C216.011 22.1734 208.838 15 199.927 15H155.608H99.4032Z" fill="url(#paint1_radial)"/>
<path d="M177.997 182.937C176.904 182.792 175.898 182.285 175.153 181.503C173.456 179.753 170.662 174.606 168.372 169.007C167.084 165.863 164.622 158.94 164.622 158.468C164.622 158.318 166.246 157.286 168.233 156.175L171.843 154.155L172.409 154.665C174.652 156.688 181.108 165.96 184.873 172.562C186.379 175.202 186.53 175.578 186.524 176.667C186.517 178.117 186.041 179.129 184.699 180.565C183.091 182.284 180.318 183.266 177.997 182.937V182.937ZM70.7001 181.213C70.7686 181.036 71.8669 176.273 73.1419 170.626C74.417 164.981 75.4887 160.328 75.5224 160.286C75.6369 160.145 87.1736 167.924 87.1696 168.142C87.1696 168.261 83.8338 171.015 79.7603 174.264C70.5867 181.579 70.5489 181.608 70.7001 181.213V181.213ZM82.9173 161.295C79.7031 159.16 77.0979 157.322 77.1285 157.212C77.2051 156.949 104.818 112.013 105.046 111.787C105.172 111.66 117.238 118.953 117.803 119.496C117.925 119.614 89.2139 165.081 88.9851 165.132C88.8625 165.159 86.1326 163.433 82.9163 161.296L82.9173 161.295ZM158.706 149.421C156.502 145.85 154.732 142.908 154.773 142.88C155.165 142.615 163.514 138 163.604 138C163.741 138 170.752 151.42 170.649 151.49C169.745 152.097 163.055 155.932 162.912 155.924C162.803 155.919 160.909 152.993 158.706 149.422V149.421ZM68.0867 148.748C68.0111 148.126 67.9784 143.096 68.0151 137.575L68.0836 127.535L79.6572 127.605C86.0253 127.638 91.2604 127.694 91.2931 127.726C91.3257 127.753 88.2628 132.754 84.4846 138.834L77.6169 149.886H68.2266L68.0867 148.748ZM102.81 149.564C102.81 149.508 105.953 144.499 109.796 138.436L116.784 127.412H141.586L148.216 138.025C151.862 143.863 154.974 148.871 155.133 149.153L155.421 149.667H129.116C114.649 149.667 102.81 149.618 102.81 149.563V149.564ZM170.477 144.86C168.62 141.185 166.759 137.512 164.894 133.84L161.735 127.626H170.316C175.036 127.626 180.943 127.565 183.447 127.484L188 127.343V149.667H172.905L170.477 144.86ZM151.321 137.729C146.238 130.032 141.06 120.988 134.839 108.937C129.903 99.377 125.152 89.4937 123.192 84.7048C120.352 77.7669 119.673 73.4533 121.359 73.0487C124.056 72.3975 129.333 78.2835 136.848 90.3246C142.733 99.7542 152.149 116.234 159.335 129.68C160.669 132.175 161.998 134.62 162.287 135.114L162.817 136.013L158.339 138.518C155.876 139.895 153.779 141.025 153.678 141.025C153.579 141.025 152.516 139.542 151.32 137.729H151.321ZM112.412 113.876L106.169 109.92L106.758 109.022C107.082 108.529 108.719 106.022 110.393 103.453C111.421 101.869 112.455 100.289 113.496 98.7131C113.528 98.6787 116.339 100.409 119.746 102.563L125.937 106.483L125.015 107.927C124.51 108.719 122.983 111.119 121.628 113.26C120.27 115.397 119.046 117.301 118.908 117.491C118.691 117.787 117.8 117.292 112.412 113.876V113.876ZM120.381 101.029C117.147 98.9969 114.496 97.2389 114.496 97.122C114.496 96.2636 117.173 93.881 118.491 93.5618C120.661 93.0393 124.218 94.376 126.202 96.4591C127.732 98.0718 128.068 98.8594 127.925 100.509C127.817 101.755 126.762 104.723 126.427 104.723C126.337 104.723 123.617 103.062 120.38 101.029H120.381Z" fill="#ebdbb2"/>
<defs>
<filter id="filter0_f" x="23.8778" y="0.441412" width="207.255" height="255.418" filterUnits="userSpaceOnUse" color-interpolation-filters="sRGB">
<feFlood flood-opacity="0" result="BackgroundImageFix"/>
<feBlend mode="normal" in="SourceGraphic" in2="BackgroundImageFix" result="shape"/>
<feGaussianBlur stdDeviation="7.5611" result="effect1_foregroundBlur"/>
</filter>
<radialGradient id="paint0_radial" cx="0" cy="0" r="1" gradientUnits="userSpaceOnUse" gradientTransform="translate(99 35) scale(139 109.269)">
<stop stop-color="#b16286"/>
<stop offset="0.995816" stop-color="#8f3f71"/>
</radialGradient>
<radialGradient id="paint1_radial" cx="0" cy="0" r="1" gradientUnits="userSpaceOnUse" gradientTransform="translate(183.827 240.174) scale(322.563 234.89)">
<stop stop-color="#b16286"/>
<stop offset="1" stop-color="#d3869b" stop-opacity="0.137795"/>
</radialGradient>
</defs>
</svg>

<svg width="256" height="256" fill="none" version="1.1" viewBox="0 0 256 256" xmlns="http://www.w3.org/2000/svg">
  <path d="m99.4 15h-44.32c-8.91 0-16.08 7.173-16.08 16.08v193c0 8.91 7.173 16.08 16.08 16.08h144.8c8.911 0 16.08-7.174 16.08-16.08v-0.044-193c0-8.91-7.173-16.08-16.08-16.08h-100.5z" clip-rule="evenodd" fill="url(#paint0_radial)" fill-rule="evenodd"/>
  <path d="m99.4 15h-44.32c-8.91 0-16.08 7.173-16.08 16.08v193c0 8.91 7.173 16.08 16.08 16.08h144.8c8.911 0 16.08-7.174 16.08-16.08v-0.044-193c0-8.91-7.173-16.08-16.08-16.08h-100.5z" clip-rule="evenodd" fill="url(#paint1_radial)" fill-rule="evenodd"/>
  <path d="m178 182.9c-1.093-0.145-2.099-0.652-2.844-1.434-1.697-1.75-4.491-6.897-6.781-12.5-1.288-3.144-3.75-10.07-3.75-10.54 0-0.15 1.624-1.182 3.611-2.293l3.61-2.02 0.566 0.51c2.243 2.023 8.699 11.3 12.46 17.9 1.506 2.64 1.657 3.016 1.651 4.105-7e-3 1.45-0.483 2.462-1.825 3.898-1.608 1.719-4.381 2.701-6.702 2.372zm-107.3-1.724c0.0685-0.177 1.167-4.94 2.442-10.59 1.275-5.645 2.347-10.3 2.38-10.34 0.1145-0.141 11.65 7.638 11.65 7.856 0 0.119-3.336 2.873-7.409 6.122-9.174 7.315-9.211 7.344-9.06 6.949zm12.22-19.92c-3.214-2.135-5.819-3.973-5.789-4.083 0.0766-0.263 27.69-45.2 27.92-45.42 0.126-0.127 12.19 7.166 12.76 7.709 0.122 0.118-28.59 45.58-28.82 45.64-0.1226 0.027-2.852-1.699-6.069-3.836l1e-3 -1e-3zm75.79-11.87c-2.204-3.571-3.974-6.513-3.933-6.541 0.392-0.265 8.741-4.88 8.831-4.88 0.137 0 7.148 13.42 7.045 13.49-0.904 0.607-7.594 4.442-7.737 4.434-0.109-5e-3 -2.003-2.931-4.206-6.502v-1e-3zm-90.62-0.673c-0.0756-0.622-0.1083-5.652-0.0716-11.17l0.0685-10.04 11.57 0.07c6.368 0.033 11.6 0.089 11.64 0.121 0.0326 0.027-3.03 5.028-6.808 11.11l-6.868 11.05h-9.39l-0.1399-1.138zm34.72 0.816c0-0.056 3.143-5.065 6.986-11.13l6.988-11.02h24.8l6.63 10.61c3.646 5.838 6.758 10.85 6.917 11.13l0.288 0.514h-26.3c-14.47 0-26.31-0.049-26.31-0.104v1e-3zm67.67-4.704c-1.857-3.675-3.718-7.348-5.583-11.02l-3.159-6.214h8.581c4.72 0 10.63-0.061 13.13-0.142l4.553-0.141v22.32h-15.1l-2.428-4.807zm-19.16-7.131c-5.083-7.697-10.26-16.74-16.48-28.79-4.936-9.56-9.687-19.44-11.65-24.23-2.84-6.938-3.519-11.25-1.833-11.66 2.697-0.6512 7.974 5.235 15.49 17.28 5.885 9.43 15.3 25.91 22.49 39.36 1.334 2.495 2.663 4.94 2.952 5.434l0.53 0.899-4.478 2.505c-2.463 1.377-4.56 2.507-4.661 2.507-0.099 0-1.162-1.483-2.358-3.296h1e-3zm-38.91-23.85-6.243-3.956 0.589-0.898c0.324-0.493 1.961-3 3.635-5.569 1.028-1.584 2.062-3.164 3.103-4.74 0.032-0.0344 2.843 1.696 6.25 3.85l6.191 3.92-0.922 1.444c-0.505 0.792-2.032 3.192-3.387 5.333-1.358 2.137-2.582 4.041-2.72 4.231-0.217 0.296-1.108-0.199-6.496-3.615zm7.969-12.85c-3.234-2.032-5.885-3.79-5.885-3.907 0-0.8584 2.677-3.241 3.995-3.56 2.17-0.5225 5.727 0.8142 7.711 2.897 1.53 1.613 1.866 2.4 1.723 4.05-0.108 1.246-1.163 4.214-1.498 4.214-0.09 0-2.81-1.661-6.047-3.694h1e-3z" fill="#ebdbb2"/>
  <defs>
    <radialGradient id="paint0_radial" cx="0" cy="0" r="1" gradientTransform="translate(99 35) scale(139 109.3)" gradientUnits="userSpaceOnUse">
      <stop stop-color="#b16286" offset="0"/>
      <stop stop-color="#8f3f71" offset=".9958"/>
    </radialGradient>
    <radialGradient id="paint1_radial" cx="0" cy="0" r="1" gradientTransform="translate(183.8 240.2) scale(322.6 234.9)" gradientUnits="userSpaceOnUse">
      <stop stop-color="#b16286" offset="0"/>
      <stop stop-color="#d3869b" stop-opacity=".1378" offset="1"/>
    </radialGradient>
  </defs>
</svg>
